X:1
T:W. S. Bambridge
T:Prayer
%%score { ( 1 2 ) | ( 3 4 ) }
L:1/8
Q:1/4=184
M:4/2
K:F
V:1 treble 
V:2 treble 
V:3 bass 
V:4 bass 
V:1
"^Presto" A4 A3 A G4 F4 | c6 B2 A6 A2 | A6 G2 F4 G4 | A12 A4 | A6 E2 F4 A4 | d6 d2 c6 B2 | %6
 A4 c4 G6 F2 | F16 | F8 F8 |] %9
V:2
 F4 F3 F E4 F4 | _E6 D2 C6 F2 | F6 E2 D4 D4 | ^C12 C4 | ^C6 C2 D4 F4 | F6 F2 E6 G2 | %6
 F4 F4 (F4 E2) F2 | F16 | D8 C8 |] %9
V:3
 C4 C3 C B,4 A,4 | F,6 F,2 F,6 C2 | C6 B,2 A,4 B,4 | E,12 E,4 | E,6 A,2 A,4 A,4 | _A,6 A,2 G,6 C2 | %6
 C4 C4 (C4 B,2) [F,A,]2 | [F,A,]16 | B,8 A,8 |] %9
V:4
 F,4 F,3 F, C,4 D,4 | A,,6 B,,2 F,6 F,2 | F,6 C,2 D,4 B,,4 | A,,12 A,,4 | A,,6 A,,2 D,4 D,4 | %5
 =B,,6 B,,2 C,6 C,2 | F,4 A,,4 C,6 F,,2 | F,,16 | B,,8 F,,8 |] %9

